X:5370
T:Flower of Yarrow,The. HA10
M:6/4
L:1/4
Q:80
S:Henry Atkinson MS,Hartburn,Northumberland,1694/5 transcribed John Stokoe 1883
N:1st note, bars 5, 17 missing, also 1st two notes, bars 13,21
Z:vmp.Cherri Graebe
K:G major
G2Bd2g|d2gB>AG|A2Be2g|e2de2g|G2Bd2g|!
d2gB>AG|cd/c/B/A/Bc/B/A/G/|A2Ge2d||!
g3g3|g3B>AG|A2ce2f/g/|b2ae2g|!
BGBd/B/d/B/d/B/|d3B>AG|cd/c/B/A/Ac/B/A/G/|A2Ge2d||!
gGBgGB|gGBgGB|gABgAB|gABe2d|!
gGBgGB|gGBgGB|cd/c/B/A/Bc/B/A/G/|A2Ge2d||
